X:275
T:Old Apples in Winter
M:6/8
L:1/8
K:EDor
|:E3GFE|BEE GFE|D3FED|FAG FED|E3GFE|BEF G2A|BdB BAF|1GEE E2D:|2GEEE3||
:efeB3|e2f gfe|fdd add|bdd add|efeB3|e2f gfe|edB BAF|GEEE3:|
